src/basic/800/u2193-down.svg

<svg width="15" height="16" viewBox="0 0 15 16" fill="none" xmlns="http://www.w3.org/2000/svg">
<path fill-rule="evenodd" clip-rule="evenodd" d="M8.00002,13.2929l5.14648,-5.14645l0.7071,0.7071l-6.00002,6.00005l-0.35356,0.3535l-0.35355,-0.3535l-6,-6.00005l0.70711,-0.7071l5.14644,5.14645v-13.2929h1z" fill="black"/>
</svg>

<svg width="15" height="16" viewBox="0 0 15 16" fill="none" xmlns="http://www.w3.org/2000/svg">
<path fill-rule="evenodd" clip-rule="evenodd" d="M8.00002 13.2929L13.1465 8.14645L13.8536 8.85355L7.85358 14.8536L7.50002 15.2071L7.14647 14.8536L1.14647 8.85355L1.85358 8.14645L7.00002 13.2929L7.00002 8.17278e-08L8.00002 6.98029e-08L8.00002 13.2929Z" fill="black"/>
</svg>
